X:380
T: WAT DOOD EER MET DAE MOLL
N: E1566
O: Europa, Mitteleuropa, Deutschland, Niederrhein
R: Staende -, Bauern - Lied, Flachsbrechen, bei der Arbeit
M: 2/4
L: 1/16
K: D
A,2 | D3CB,2C2 | D4
F4 | E3DC2D2 | E4z2
A,2 | E3EE2F2 | G2F2E2z2 |
F2D2D2D2 | E2A,2A,2
A,2 | D3DE2E2 | A4z2

@@@ Tune index: 5064
